src/Pure-Dark/16/symbolic/places/mail-folder-outbox-symbolic.svg

<?xml version="1.0" encoding="UTF-8" standalone="no"?>
<svg
   width="16"
   height="16"
   version="1.1"
   id="svg2"
   sodipodi:docname="mail-outbox-symbolic.svg"
   inkscape:version="1.4.2 (ebf0e940d0, 2025-05-08)"
   xmlns:inkscape="http://www.inkscape.org/namespaces/inkscape"
   xmlns:sodipodi="http://sodipodi.sourceforge.net/DTD/sodipodi-0.dtd"
   xmlns="http://www.w3.org/2000/svg"
   xmlns:svg="http://www.w3.org/2000/svg">
  <defs
      id="defs2">
      <style
          id="current-color-scheme"
          type="text/css">
          .ColorScheme-Text { color:#f2f2f2; }
      </style>
  </defs>
  <sodipodi:namedview
     id="namedview2"
     pagecolor="#ffffff"
     bordercolor="#000000"
     borderopacity="0.25"
     inkscape:showpageshadow="2"
     inkscape:pageopacity="0.0"
     inkscape:pagecheckerboard="0"
     inkscape:deskcolor="#d1d1d1"
     inkscape:zoom="49.6875"
     inkscape:cx="8"
     inkscape:cy="8"
     inkscape:window-width="1920"
     inkscape:window-height="1010"
     inkscape:window-x="0"
     inkscape:window-y="0"
     inkscape:window-maximized="1"
     inkscape:current-layer="svg2" />
  <path
     id="path1"
     style="fill:currentColor"
     class="ColorScheme-Text"
     d="M 7.5 1 C 7.43355 1 7.370404 1.0137734 7.3125 1.0371094 C 7.24972 1.0624194 7.1934964 1.0994724 7.1464844 1.1464844 L 5.0253906 3.2675781 C 4.8295206 3.4634481 4.8295206 3.7787394 5.0253906 3.9746094 C 5.2212606 4.1704794 5.5365519 4.1704794 5.7324219 3.9746094 L 7 2.7070312 L 7 7.5 C 7 7.7769966 7.2230047 7.9999946 7.5 8 C 7.7769954 7.9999947 8 7.7769967 8 7.5 L 8 2.7070312 L 9.2675781 3.9746094 C 9.4634481 4.1704794 9.7787394 4.1704794 9.9746094 3.9746094 C 10.170479 3.7787394 10.170479 3.4634481 9.9746094 3.2675781 L 7.8535156 1.1464844 C 7.8064956 1.0994624 7.750278 1.0624094 7.6875 1.0371094 C 7.6296 1.0137744 7.566453 1 7.5 1 z M 4 3.3398438 C 3.42742 3.6181538 3.0195681 4.00249 2.8300781 4.25 L 0.20507812 7.6777344 C 0.071918125 7.8522144 -0.00015 8.0656662 0 8.2851562 L 0 8.5 L 0 9 L 0 12 C 0 13.108 0.892 14 2 14 L 13 14 C 14.108 14 14.9979 13.108 15 12 L 15 9 L 15 8.5 L 15 8.2851562 C 15.000148 8.0656662 14.928082 7.8522144 14.794922 7.6777344 L 12.169922 4.25 C 11.980422 4.00249 11.57256 3.6181537 11 3.3398438 L 11 4.4707031 C 11.15026 4.5957731 11.27658 4.7288619 11.375 4.8574219 L 13.78125 8 L 12 8 L 10.958984 8 L 10.078125 8 L 9.9492188 8 C 9.7116488 9.1639 8.6879 9.9999 7.5 10 C 6.3136 9.99801 5.2919875 9.16244 5.0546875 8 L 4.921875 8 L 4.0390625 8 L 1.21875 8 L 3.625 4.8574219 C 3.723429 4.7288619 3.84975 4.5957731 4 4.4707031 L 4 3.3398438 z M 1 9 L 4.3417969 9 C 4.9205469 10.2201 6.1496 10.9984 7.5 11 C 8.8503 10.9967 10.069284 10.21367 10.646484 9 L 10.658203 9 L 12 9 L 14 9 L 14 12 C 14 12.554 13.554 13 13 13 L 2 13 C 1.446 13 1 12.554 1 12 L 1 9 z " />
</svg>

<svg width="16" height="16" version="1.1" xmlns="http://www.w3.org/2000/svg">
 <path d="m4 3.3398c-0.57258 0.27831-0.98041 0.66265-1.1699 0.91016l-2.625 3.4277c-0.13316 0.17448-0.20523 0.38793-0.20508 0.60742v0.21484 0.5 3c0 1.108 0.892 2 2 2h11c1.108 0 1.9979-0.892 2-2v-3-0.5-0.21484c1.48e-4 -0.21949-0.071918-0.43294-0.20508-0.60742l-2.625-3.4277c-0.1895-0.24751-0.59734-0.63185-1.1699-0.91016v1.1309c0.15026 0.12507 0.27658 0.25816 0.375 0.38672l2.4062 3.1426h-1.7812-1.041-0.88086-0.12891c-0.23757 1.1639-1.2613 1.9999-2.4492 2-1.1864-0.0019886-2.208-0.83756-2.4453-2h-0.13281-0.88281-2.8203l2.4062-3.1426c0.098429-0.12856 0.22475-0.26165 0.375-0.38672v-1.1309zm-3 5.6602h3.3418c0.57875 1.2201 1.8078 1.9984 3.1582 2 1.3503-0.0033 2.5693-0.78633 3.1465-2h0.011719 1.3418 2v3c0 0.554-0.446 1-1 1h-11c-0.554 0-1-0.446-1-1v-3z" fill="#f2f2f2"/>
 <path d="m7.5 8c-0.277 0-0.5-0.223-0.5-0.5v-4.793l-1.2676 1.2676c-0.19587 0.19587-0.51116 0.19587-0.70703 0s-0.19587-0.51116 0-0.70703l2.1211-2.1211c0.047012-0.047012 0.10324-0.08407 0.16602-0.10938 0.057904-0.023336 0.12105-0.037109 0.1875-0.037109 0.066453 0 0.1296 0.013774 0.1875 0.037109 0.062778 0.0253 0.119 0.062358 0.16602 0.10938l2.1211 2.1211c0.19587 0.19587 0.19587 0.51116 0 0.70703-0.19587 0.19587-0.51116 0.19587-0.70703 0l-1.2676-1.2676v4.793c0 0.277-0.223 0.5-0.5 0.5z" fill="#f2f2f2"/>
</svg>
